#define im_width 35
#define im_height 40
static char im_bits[] = {
0x00,0x00,0x00,0x00,0x00,0x00,0x00,0x00,0x00,0x00,0x00,0x00,0x00,0x00,0x00,
0x00,0x00,0x00,0x00,0x00,0x00,0x00,0x00,0x00,0x00,0xc0,0x3f,0xe0,0x1f,0x00,
0xc0,0x3f,0xe0,0x1f,0x00,0xc0,0x3f,0xe0,0x1f,0x00,0xc0,0x3f,0xe0,0x1f,0x00,
0xc0,0x3f,0xe0,0x1f,0x00,0xc0,0x3f,0xe0,0x1f,0x00,0xc0,0x3f,0xe0,0x1f,0x00,
0xc0,0x3f,0xe0,0x1f,0x00,0xc0,0x3f,0xe0,0x1f,0x00,0xc0,0x3f,0xe0,0x1f,0x00,
0xc0,0x3f,0xe0,0x1f,0x00,0xc0,0x3f,0xe0,0x1f,0x00,0xc0,0x3f,0xe0,0x1f,0x00,
0xc0,0x3f,0xe0,0x1f,0x00,0xc0,0x3f,0xe0,0x1f,0x00,0xc0,0x3f,0xe0,0x1f,0x00,
0xc0,0x3f,0xe0,0x1f,0x00,0xc0,0x3f,0xe0,0x1f,0x00,0xc0,0x3f,0xe0,0x1f,0x00,
0xc0,0x3f,0xe0,0x1f,0x00,0xc0,0x3f,0xe0,0x1f,0x00,0xc0,0x3f,0xe0,0x1f,0x00,
0xc0,0x3f,0xe0,0x1f,0x00,0xc0,0x3f,0xe0,0x1f,0x00,0xc0,0x3f,0xe0,0x1f,0x00,
0xc0,0x3f,0xe0,0x1f,0x00,0xc0,0x3f,0xe0,0x1f,0x00,0xc0,0x3f,0xe0,0x1f,0x00,
0xc0,0x3f,0xe0,0x1f,0x00,0xc0,0x3f,0xe0,0x1f,0x00,0x00,0x00,0x00,0x00,0x00,
0x00,0x00,0x00,0x00,0x00,0x00,0x00,0x00,0x00,0x00,0x00,0x00,0x00,0x00,0x00,
0x00,0x00,0x00,0x00,0x00
};
